app/component-library/components/Icons/Icon/assets/setting.svg

<svg width="24" height="24" viewBox="0 0 24 24" fill="none" xmlns="http://www.w3.org/2000/svg">
<path d="M20.3813 9.22C18.5713 9.22 17.8313 7.94 18.7313 6.37C19.2513 5.46 18.9413 4.3 18.0312 3.78L16.3013 2.79C15.5113 2.32 14.4912 2.6 14.0212 3.39L13.9113 3.58C13.0113 5.15 11.5313 5.15 10.6213 3.58L10.5112 3.39C10.0612 2.6 9.04125 2.32 8.25125 2.79L6.52125 3.78C5.61125 4.3 5.30125 5.47 5.82125 6.38C6.73125 7.94 5.99125 9.22 4.18125 9.22C3.14125 9.22 2.28125 10.07 2.28125 11.12V12.88C2.28125 13.92 3.13125 14.78 4.18125 14.78C5.99125 14.78 6.73125 16.06 5.82125 17.63C5.30125 18.54 5.61125 19.7 6.52125 20.22L8.25125 21.21C9.04125 21.68 10.0613 21.4 10.5312 20.61L10.6412 20.42C11.5412 18.85 13.0212 18.85 13.9312 20.42L14.0413 20.61C14.5113 21.4 15.5313 21.68 16.3213 21.21L18.0513 20.22C18.9613 19.7 19.2712 18.53 18.7512 17.63C17.8412 16.06 18.5813 14.78 20.3913 14.78C21.4313 14.78 22.2913 13.93 22.2913 12.88V11.12C22.2813 10.08 21.4313 9.22 20.3813 9.22ZM12.2812 15.25C10.4913 15.25 9.03125 13.79 9.03125 12C9.03125 10.21 10.4913 8.75 12.2812 8.75C14.0712 8.75 15.5312 10.21 15.5312 12C15.5312 13.79 14.0712 15.25 12.2812 15.25Z" fill="currentColor"/>
</svg>

<svg xmlns="http://www.w3.org/2000/svg" width="24" height="24" viewBox="0 0 24 24" fill="none"><path fill="currentColor" d="M20.381 9.22c-1.81 0-2.55-1.28-1.65-2.85.52-.91.21-2.07-.7-2.59l-1.73-.99c-.79-.47-1.81-.19-2.28.6l-.11.19c-.9 1.57-2.38 1.57-3.29 0l-.11-.19a1.641 1.641 0 0 0-2.26-.6l-1.73.99c-.91.52-1.22 1.69-.7 2.6.91 1.56.17 2.84-1.64 2.84-1.04 0-1.9.85-1.9 1.9v1.76c0 1.04.85 1.9 1.9 1.9 1.81 0 2.55 1.28 1.64 2.85-.52.91-.21 2.07.7 2.59l1.73.99c.79.47 1.81.19 2.28-.6l.11-.19c.9-1.57 2.38-1.57 3.29 0l.11.19c.47.79 1.49 1.07 2.28.6l1.73-.99c.91-.52 1.22-1.69.7-2.59-.91-1.57-.17-2.85 1.64-2.85 1.04 0 1.9-.85 1.9-1.9v-1.76a1.92 1.92 0 0 0-1.91-1.9Zm-8.1 6.03c-1.79 0-3.25-1.46-3.25-3.25s1.46-3.25 3.25-3.25 3.25 1.46 3.25 3.25-1.46 3.25-3.25 3.25Z"/></svg>
